src/svg/document-text.svg

<svg version="1.2" baseProfile="tiny" xmlns="http://www.w3.org/2000/svg" width="24" height="24" viewBox="0 0 24 24"><g><path d="M17 21h-10c-1.654 0-3-1.346-3-3v-12c0-1.654 1.346-3 3-3h10c1.654 0 3 1.346 3 3v12c0 1.654-1.346 3-3 3zm-10-16c-.551 0-1 .449-1 1v12c0 .551.449 1 1 1h10c.551 0 1-.449 1-1v-12c0-.551-.449-1-1-1h-10zM16 11h-8c-.276 0-.5-.224-.5-.5s.224-.5.5-.5h8c.276 0 .5.224.5.5s-.224.5-.5.5zM16 8h-8c-.276 0-.5-.224-.5-.5s.224-.5.5-.5h8c.276 0 .5.224.5.5s-.224.5-.5.5zM16 14h-8c-.276 0-.5-.224-.5-.5s.224-.5.5-.5h8c.276 0 .5.224.5.5s-.224.5-.5.5zM16 17h-8c-.276 0-.5-.224-.5-.5s.224-.5.5-.5h8c.276 0 .5.224.5.5s-.224.5-.5.5z"/></g></svg>

<?xml version="1.0" encoding="iso-8859-1"?>
<!-- Generator: Adobe Illustrator 16.2.1, SVG Export Plug-In . SVG Version: 6.00 Build 0)  -->
<svg version="1.2" baseProfile="tiny" xmlns="http://www.w3.org/2000/svg" xmlns:xlink="http://www.w3.org/1999/xlink" x="0px"
	 y="0px" width="24px" height="24px" viewBox="0 0 24 24" xml:space="preserve">
<g id="Layer_1">
	<g>
		<path d="M17,21H7c-1.654,0-3-1.346-3-3V6c0-1.654,1.346-3,3-3h10c1.654,0,3,1.346,3,3v12C20,19.654,18.654,21,17,21z M7,5
			C6.449,5,6,5.449,6,6v12c0,0.551,0.449,1,1,1h10c0.551,0,1-0.449,1-1V6c0-0.551-0.449-1-1-1H7z"/>
	</g>
	<g>
		<path d="M16,11H8c-0.276,0-0.5-0.224-0.5-0.5S7.724,10,8,10h8c0.276,0,0.5,0.224,0.5,0.5S16.276,11,16,11z"/>
	</g>
	<g>
		<path d="M16,8H8C7.724,8,7.5,7.776,7.5,7.5S7.724,7,8,7h8c0.276,0,0.5,0.224,0.5,0.5S16.276,8,16,8z"/>
	</g>
	<g>
		<path d="M16,14H8c-0.276,0-0.5-0.224-0.5-0.5S7.724,13,8,13h8c0.276,0,0.5,0.224,0.5,0.5S16.276,14,16,14z"/>
	</g>
	<g>
		<path d="M16,17H8c-0.276,0-0.5-0.224-0.5-0.5S7.724,16,8,16h8c0.276,0,0.5,0.224,0.5,0.5S16.276,17,16,17z"/>
	</g>
</g>
<g id="nyt_x5F_exporter_x5F_info" display="none">
</g>
</svg>
